icons/Document/sticky-note-fill.svg

<svg viewBox="0 0 24 24" xmlns="http://www.w3.org/2000/svg"><path d="M15 14L14.8834 14.0067C14.4243 14.0601 14.0601 14.4243 14.0067 14.8834L14 15V21H3.99826C3.44694 21 3 20.5551 3 20.0066V3.9934C3 3.44476 3.44495 3 3.9934 3H20.0066C20.5552 3 21 3.44749 21 3.9985V14H15ZM21 16L16 20.997V16H21Z"/></svg>

<svg xmlns="http://www.w3.org/2000/svg" viewBox="0 0 24 24">
    <g>
        <path fill="none" d="M0 0h24v24H0z"/>
        <path d="M15 14l-.117.007a1 1 0 0 0-.876.876L14 15v6H3.998A.996.996 0 0 1 3 20.007V3.993C3 3.445 3.445 3 3.993 3h16.014c.548 0 .993.447.993.999V14h-6zm6 2l-5 4.997V16h5z"/>
    </g>
</svg>
